src/assets/images/icons/discord.svg

<svg width="24" height="25" viewBox="0 0 24 25" fill="none" xmlns="http://www.w3.org/2000/svg">
<g clip-path="url(#clip0_256:2722)">
<path d="M9.32792 10.1776C8.99458 10.2065 8.68419 10.3594 8.45805 10.606C8.2319 10.8526 8.10645 11.175 8.10645 11.5096C8.10645 11.8442 8.2319 12.1667 8.45805 12.4133C8.68419 12.6599 8.99458 12.8127 9.32792 12.8416C9.4958 12.8347 9.66066 12.7947 9.81307 12.724C9.96548 12.6533 10.1025 12.5532 10.2161 12.4295C10.3298 12.3057 10.418 12.1608 10.4756 12.003C10.5332 11.8451 10.5592 11.6775 10.5519 11.5096C10.5601 11.3416 10.5348 11.1735 10.4776 11.0153C10.4203 10.857 10.3322 10.7117 10.2183 10.5878C10.1044 10.4639 9.9671 10.3639 9.81425 10.2934C9.66141 10.223 9.4961 10.1837 9.32792 10.1776V10.1776ZM13.7079 10.1776C13.4396 10.1549 13.1707 10.2137 12.9364 10.3463C12.702 10.4789 12.5132 10.6792 12.3946 10.9209C12.276 11.1627 12.2332 11.4346 12.2717 11.7011C12.3102 11.9676 12.4283 12.2162 12.6105 12.4145C12.7926 12.6128 13.0305 12.7514 13.2927 12.8123C13.555 12.8731 13.8296 12.8534 14.0805 12.7556C14.3314 12.6578 14.5469 12.4865 14.6988 12.2642C14.8507 12.0419 14.932 11.7789 14.9319 11.5096C14.9392 11.3418 14.9132 11.1741 14.8556 11.0163C14.798 10.8585 14.7098 10.7135 14.5961 10.5898C14.4825 10.4661 14.3455 10.366 14.1931 10.2953C14.0407 10.2246 13.8758 10.1846 13.7079 10.1776V10.1776Z" fill="#98A2B3"/>
<path d="M19.54 0.109619H3.46001C3.13617 0.110406 2.81565 0.174971 2.51677 0.299626C2.21788 0.424282 1.94647 0.606588 1.71804 0.836134C1.4896 1.06568 1.30862 1.33797 1.18542 1.63746C1.06222 1.93695 0.999218 2.25778 1.00001 2.58162V18.8096C0.999218 19.1335 1.06222 19.4543 1.18542 19.7538C1.30862 20.0533 1.4896 20.3256 1.71804 20.5551C1.94647 20.7846 2.21788 20.967 2.51677 21.0916C2.81565 21.2163 3.13617 21.2808 3.46001 21.2816H17.068L16.432 19.0616L17.968 20.4896L19.42 21.8296L22 24.1096V2.58162C22.0008 2.25778 21.9378 1.93695 21.8146 1.63746C21.6914 1.33797 21.5104 1.06568 21.282 0.836134C21.0535 0.606588 20.7821 0.424282 20.4832 0.299626C20.1844 0.174971 19.8638 0.110406 19.54 0.109619V0.109619ZM14.908 15.7816C14.908 15.7816 14.476 15.2656 14.116 14.8096C14.9858 14.6048 15.7552 14.099 16.288 13.3816C15.8562 13.669 15.3933 13.9065 14.908 14.0896C14.3498 14.3279 13.7659 14.501 13.168 14.6056C12.1403 14.7948 11.0863 14.7908 10.06 14.5936C9.45887 14.4755 8.86976 14.3028 8.30001 14.0776C7.81882 13.8938 7.35992 13.6563 6.93201 13.3696C7.44554 14.072 8.18835 14.5728 9.03201 14.7856C8.67201 15.2416 8.23201 15.7856 8.23201 15.7856C7.51919 15.8048 6.81258 15.6485 6.17437 15.3304C5.53616 15.0123 4.9859 14.5423 4.57201 13.9616C4.61037 11.5275 5.20124 9.13395 6.30001 6.96162C7.26643 6.2026 8.44466 5.76234 9.67201 5.70162L9.79201 5.84562C8.63452 6.13043 7.55416 6.66719 6.62801 7.41762C6.62801 7.41762 6.89201 7.27362 7.33601 7.06962C8.19835 6.67451 9.11767 6.41802 10.06 6.30962C10.1259 6.29594 10.1928 6.28791 10.26 6.28562C11.0641 6.18084 11.8779 6.17279 12.684 6.26162C13.9533 6.40712 15.1817 6.79985 16.3 7.41762C15.4231 6.70382 14.4047 6.18437 13.312 5.89362L13.48 5.70162C14.7074 5.76234 15.8856 6.2026 16.852 6.96162C17.9508 9.13395 18.5416 11.5275 18.58 13.9616C18.1624 14.541 17.6096 15.0097 16.9697 15.3269C16.3297 15.6441 15.622 15.8002 14.908 15.7816V15.7816Z" fill="#98A2B3"/>
</g>
<defs>
<clipPath id="clip0_256:2722">
<rect width="24" height="24" fill="white" transform="translate(0 0.109619)"/>
</clipPath>
</defs>
</svg>

<svg width="24" height="25" fill="none" xmlns="http://www.w3.org/2000/svg"><g clip-path="url(#a)" fill="#98A2B3"><path d="M9.328 10.178a1.337 1.337 0 0 0 0 2.664 1.278 1.278 0 0 0 1.224-1.332 1.272 1.272 0 0 0-1.224-1.332Zm4.38 0a1.337 1.337 0 1 0 1.224 1.332 1.277 1.277 0 0 0-1.224-1.332Z"/><path d="M19.54.11H3.46A2.466 2.466 0 0 0 1 2.582V18.81a2.466 2.466 0 0 0 2.46 2.472h13.608l-.636-2.22 1.536 1.428 1.452 1.34L22 24.11V2.582A2.466 2.466 0 0 0 19.54.11Zm-4.632 15.672s-.432-.516-.792-.972c.87-.205 1.64-.711 2.172-1.428a6.863 6.863 0 0 1-1.38.708 7.898 7.898 0 0 1-1.74.516 8.406 8.406 0 0 1-3.108-.012c-.601-.118-1.19-.291-1.76-.516a6.847 6.847 0 0 1-1.368-.708 3.732 3.732 0 0 0 2.1 1.416c-.36.456-.8 1-.8 1a4.35 4.35 0 0 1-3.66-1.824 16.07 16.07 0 0 1 1.728-7 5.934 5.934 0 0 1 3.372-1.26l.12.144a8.1 8.1 0 0 0-3.164 1.572s.264-.144.708-.348a9.012 9.012 0 0 1 2.724-.76c.066-.014.133-.022.2-.024a10.153 10.153 0 0 1 2.424-.024A9.782 9.782 0 0 1 16.3 7.418a7.986 7.986 0 0 0-2.988-1.524l.168-.192a5.934 5.934 0 0 1 3.372 1.26 16.07 16.07 0 0 1 1.728 7 4.386 4.386 0 0 1-3.672 1.82Z"/></g><defs><clipPath id="a"><path fill="#fff" transform="translate(0 .11)" d="M0 0h24v24H0z"/></clipPath></defs></svg>
